Numix-GalliumOS/48/devices/audio-headset.svg

<?xml version="1.0" encoding="UTF-8" standalone="no"?>
<svg
   xmlns:dc="http://purl.org/dc/elements/1.1/"
   xmlns:cc="http://creativecommons.org/ns#"
   xmlns:rdf="http://www.w3.org/1999/02/22-rdf-syntax-ns#"
   xmlns:svg="http://www.w3.org/2000/svg"
   xmlns="http://www.w3.org/2000/svg"
   xmlns:sodipodi="http://sodipodi.sourceforge.net/DTD/sodipodi-0.dtd"
   xmlns:inkscape="http://www.inkscape.org/namespaces/inkscape"
   viewBox="0 0 48 48"
   id="svg2"
   version="1.1"
   inkscape:version="0.91 r"
   sodipodi:docname="audio-headset.svg">
  <metadata
     id="metadata12">
    <rdf:RDF>
      <cc:Work
         rdf:about="">
        <dc:format>image/svg+xml</dc:format>
        <dc:type
           rdf:resource="http://purl.org/dc/dcmitype/StillImage" />
        <dc:title />
      </cc:Work>
    </rdf:RDF>
  </metadata>
  <defs
     id="defs10" />
  <sodipodi:namedview
     pagecolor="#ffffff"
     bordercolor="#666666"
     borderopacity="1"
     objecttolerance="10"
     gridtolerance="10"
     guidetolerance="10"
     inkscape:pageopacity="0"
     inkscape:pageshadow="2"
     inkscape:window-width="1920"
     inkscape:window-height="1056"
     id="namedview8"
     showgrid="true"
     inkscape:zoom="7.9999995"
     inkscape:cx="50.368156"
     inkscape:cy="42.564712"
     inkscape:window-x="0"
     inkscape:window-y="24"
     inkscape:window-maximized="1"
     inkscape:current-layer="svg2">
    <inkscape:grid
       type="xygrid"
       id="grid4140" />
  </sodipodi:namedview>
  <path
     style="fill:#faae40;fill-opacity:1;fill-rule:evenodd;stroke:none;stroke-width:1px;stroke-linecap:butt;stroke-linejoin:miter;stroke-opacity:1"
     d="m 23.771807,7.5281792 c 0,-1e-6 -2.946215,0.2173868 -4.910359,0.9552183 -1.964144,0.7378316 -3.230006,1.5958665 -5.892431,3.5600115 -2.662426,1.964144 -1.396384,2.342012 -1.396384,2.342012 0.71116,0.08135 1.633303,0.05155 2.265288,-0.379786 0.805631,-0.54985 2.563814,-1.963744 4.041455,-2.568349 1.858902,-0.760604 3.883871,-1.260197 5.892431,-1.260197 2.008561,0 4.03353,0.499593 5.892432,1.260197 1.477641,0.604605 3.235823,2.018499 4.041455,2.568349 0.631985,0.431335 1.554128,0.461144 2.265288,0.379786 0,0 1.266041,-0.377868 -1.396384,-2.342012 C 31.912173,10.079264 30.646311,9.2212291 28.682167,8.4833975 26.718023,7.745566 23.771807,7.5281781 23.771807,7.5281792 Z"
     id="path4210"
     inkscape:connector-curvature="0"
     sodipodi:nodetypes="csscssasscssc" />
  <path
     style="opacity:1;fill:none;fill-opacity:1;fill-rule:nonzero;stroke:#515151;stroke-width:1.5;stroke-linecap:butt;stroke-linejoin:miter;stroke-miterlimit:4;stroke-dasharray:none;stroke-dashoffset:0;stroke-opacity:1"
     id="path4142"
     transform="scale(-1,-1)"
     sodipodi:type="arc"
     sodipodi:cx="-24"
     sodipodi:cy="-22.999998"
     sodipodi:rx="15.499999"
     sodipodi:ry="15.5"
     sodipodi:start="0"
     sodipodi:end="3.1415927"
     sodipodi:open="true"
     d="m -8.500001,-22.999998 a 15.499999,15.5 0 0 1 -7.75,13.4233938 15.499999,15.5 0 0 1 -15.499999,-4e-7 15.499999,15.5 0 0 1 -7.749999,-13.4233944" />
  <path
     style="fill:#faae40;fill-opacity:1;fill-rule:evenodd;stroke:none;stroke-width:1px;stroke-linecap:butt;stroke-linejoin:miter;stroke-opacity:1"
     d="M 7.75,23 8,26 9.5,26 9.25,23 Z"
     id="path4166"
     inkscape:connector-curvature="0"
     sodipodi:nodetypes="ccccc" />
  <rect
     style="opacity:1;fill:#515151;fill-opacity:1;fill-rule:nonzero;stroke:none;stroke-width:1;stroke-linecap:butt;stroke-linejoin:miter;stroke-miterlimit:4;stroke-dasharray:none;stroke-dashoffset:0;stroke-opacity:1"
     id="rect4157"
     width="7"
     height="16"
     x="7.7035446"
     y="24.597895"
     ry="2"
     rx="2"
     transform="matrix(0.9961947,-0.08715574,0.08715574,0.9961947,0,0)" />
  <path
     sodipodi:nodetypes="ccccccc"
     style="fill:#515151;fill-opacity:1;fill-rule:evenodd;stroke:none;stroke-width:1px;stroke-linecap:butt;stroke-linejoin:miter;stroke-opacity:1"
     d="m 8,25.999586 1.1330246,12.950531 0.9961944,-0.08716 -0.08716,-0.996195 0.996194,-0.08715 -1.0458686,-11.954337 z"
     id="path4155"
     inkscape:connector-curvature="0" />
  <rect
     style="opacity:1;fill:#faae40;fill-opacity:1;fill-rule:nonzero;stroke:none;stroke-width:1;stroke-linecap:butt;stroke-linejoin:miter;stroke-miterlimit:4;stroke-dasharray:none;stroke-dashoffset:0;stroke-opacity:1"
     id="rect4159"
     width="2"
     height="16"
     x="7.7035446"
     y="24.597895"
     transform="matrix(0.9961947,-0.08715574,0.08715574,0.9961947,0,0)" />
  <path
     sodipodi:nodetypes="ccccc"
     inkscape:connector-curvature="0"
     id="path4181"
     d="M 40.25,23 40,26 38.5,26 38.75,23 Z"
     style="fill:#faae40;fill-opacity:1;fill-rule:evenodd;stroke:none;stroke-width:1px;stroke-linecap:butt;stroke-linejoin:miter;stroke-opacity:1" />
  <rect
     rx="1.9999158"
     ry="1.9999994"
     y="20.414265"
     x="-40.113804"
     height="15.999995"
     width="6.9997058"
     id="rect4185"
     style="opacity:1;fill:#515151;fill-opacity:1;fill-rule:nonzero;stroke:none;stroke-width:1;stroke-linecap:butt;stroke-linejoin:miter;stroke-miterlimit:4;stroke-dasharray:none;stroke-dashoffset:0;stroke-opacity:1"
     transform="matrix(-0.99619438,-0.08715941,-0.08715207,0.99619502,0,0)" />
  <path
     inkscape:connector-curvature="0"
     id="path4187"
     d="m 39.999999,25.999586 -1.132976,12.950531 -0.996153,-0.08716 0.08715,-0.996195 -0.996152,-0.08715 1.045824,-11.954337 z"
     style="fill:#515151;fill-opacity:1;fill-rule:evenodd;stroke:none;stroke-width:1px;stroke-linecap:butt;stroke-linejoin:miter;stroke-opacity:1"
     sodipodi:nodetypes="ccccccc" />
  <rect
     y="20.414265"
     x="-40.113804"
     height="15.999995"
     width="1.9999158"
     id="rect4189"
     style="opacity:1;fill:#faae40;fill-opacity:1;fill-rule:nonzero;stroke:none;stroke-width:1;stroke-linecap:butt;stroke-linejoin:miter;stroke-miterlimit:4;stroke-dasharray:none;stroke-dashoffset:0;stroke-opacity:1"
     transform="matrix(-0.99619438,-0.08715941,-0.08715207,0.99619502,0,0)" />
  <path
     style="color:#000000;font-style:normal;font-variant:normal;font-weight:normal;font-stretch:normal;font-size:medium;line-height:normal;font-family:sans-serif;text-indent:0;text-align:start;text-decoration:none;text-decoration-line:none;text-decoration-style:solid;text-decoration-color:#000000;letter-spacing:normal;word-spacing:normal;text-transform:none;direction:ltr;block-progression:tb;writing-mode:lr-tb;baseline-shift:baseline;text-anchor:start;white-space:normal;clip-rule:nonzero;display:inline;overflow:visible;visibility:visible;opacity:1;isolation:auto;mix-blend-mode:normal;color-interpolation:sRGB;color-interpolation-filters:linearRGB;solid-color:#000000;solid-opacity:1;fill:#515151;fill-opacity:1;fill-rule:nonzero;stroke:none;stroke-width:1.5;stroke-linecap:round;stroke-linejoin:miter;stroke-miterlimit:4;stroke-dasharray:none;stroke-dashoffset:0;stroke-opacity:1;color-rendering:auto;image-rendering:auto;shape-rendering:auto;text-rendering:auto;enable-background:accumulate"
     d="M 24,3.5 C 23.577363,3.4944876 23.233637,3.8390975 23.240234,4.2617188 23.2467,4.6751629 23.586541,5.0053929 24,5 c 9.950008,0 18,8.049969 18,18 0,3 -0.449598,8.409878 -1.375,8.601562 C 39.97219,31.736782 39,32 39,32 l 0,1.5 c 0,0 2.59689,-0.323115 3.205231,-1.217065 C 42.598281,31.705353 43.503378,29 43.5,23 43.5,12.239311 34.76067,3.5 24,3.5 Z"
     id="path4142-2"
     inkscape:connector-curvature="0"
     sodipodi:nodetypes="ccccsccscc" />
  <rect
     style="opacity:1;fill:#515151;fill-opacity:1;fill-rule:nonzero;stroke:none;stroke-width:1.5;stroke-linecap:round;stroke-linejoin:miter;stroke-miterlimit:4;stroke-dasharray:none;stroke-dashoffset:0;stroke-opacity:1"
     id="rect4245"
     width="3"
     height="2.0606601"
     x="24"
     y="3.9393399"
     rx="0.69999999" />
</svg>

<svg xmlns="http://www.w3.org/2000/svg" viewBox="0 0 48 48">
 <path d="m 23.772 7.528 c 0 0 -2.946 0.217 -4.91 0.955 -1.964 0.738 -3.23 1.596 -5.892 3.56 -2.662 1.964 -1.396 2.342 -1.396 2.342 0.711 0.081 1.633 0.052 2.265 -0.38 0.806 -0.55 2.564 -1.964 4.04 -2.568 1.859 -0.761 3.884 -1.26 5.892 -1.26 2.01 0 4.03 0.5 5.892 1.26 1.478 0.605 3.236 2.02 4.04 2.568 0.632 0.431 1.554 0.461 2.265 0.38 0 0 1.266 -0.378 -1.396 -2.342 c -2.662 -1.964 -3.928 -2.822 -5.892 -3.56 -1.964 -0.738 -4.91 -0.955 -4.91 -0.955" style="fill:#faae40;fill-opacity:1;stroke:none;fill-rule:evenodd"/>
 <path transform="scale(-1,-1)" d="m -8.5 -23 a 15.5 15.5 0 0 1 -7.75 13.423 15.5 15.5 0 0 1 -15.5 0 15.5 15.5 0 0 1 -7.75 -13.423" style="stroke-dasharray:none;stroke-opacity:1;fill:none;opacity:1;stroke-miterlimit:4;fill-opacity:1;stroke:#515151;fill-rule:nonzero;stroke-linecap:butt;stroke-linejoin:miter;stroke-width:1.5;stroke-dashoffset:0"/>
 <path d="m 7.75 23 0.25 3 1.5 0 -0.25 -3" style="fill:#faae40;fill-opacity:1;stroke:none;fill-rule:evenodd"/>
 <rect width="7" height="16" x="7.704" y="24.598" rx="2" transform="matrix(0.9961947,-0.08715574,0.08715574,0.9961947,0,0)" style="fill:#515151;opacity:1;fill-opacity:1;stroke:none;fill-rule:nonzero"/>
 <path d="m 8 26 1.133 12.951 0.996 -0.087 -0.087 -0.996 0.996 -0.087 -1.046 -11.954 z" style="fill:#515151;fill-opacity:1;stroke:none;fill-rule:evenodd"/>
 <rect width="2" height="16" x="7.704" y="24.598" transform="matrix(0.9961947,-0.08715574,0.08715574,0.9961947,0,0)" style="fill:#faae40;opacity:1;fill-opacity:1;stroke:none;fill-rule:nonzero"/>
 <path d="m 40.25 23 -0.25 3 -1.5 0 0.25 -3" style="fill:#faae40;fill-opacity:1;stroke:none;fill-rule:evenodd"/>
 <rect rx="2" y="20.414" x="-40.11" height="16" width="7" transform="matrix(-0.99619438,-0.08715941,-0.08715207,0.99619502,0,0)" style="fill:#515151;opacity:1;fill-opacity:1;stroke:none;fill-rule:nonzero"/>
 <path d="m 40 26 -1.133 12.951 -0.996 -0.087 0.087 -0.996 -0.996 -0.087 1.046 -11.954 z" style="fill:#515151;fill-opacity:1;stroke:none;fill-rule:evenodd"/>
 <rect y="20.414" x="-40.11" height="16" width="2" transform="matrix(-0.99619438,-0.08715941,-0.08715207,0.99619502,0,0)" style="fill:#faae40;opacity:1;fill-opacity:1;stroke:none;fill-rule:nonzero"/>
 <path d="m 24 3.5 c -0.423 -0.006 -0.766 0.339 -0.76 0.762 0.006 0.413 0.346 0.744 0.76 0.738 c 9.95 0 18 8.05 18 18 0 3 -0.45 8.41 -1.375 8.602 c -0.653 0.135 -1.625 0.398 -1.625 0.398 l 0 1.5 c 0 0 2.597 -0.323 3.205 -1.217 c 0.393 -0.578 1.298 -3.283 1.295 -9.283 0 -10.761 -8.739 -19.5 -19.5 -19.5" mix-blend-mode="normal" isolation="auto" white-space="normal" solid-opacity="1" solid-color="#000000" style="visibility:visible;shape-rendering:auto;color-interpolation-filters:linearRGB;fill:#515151;opacity:1;image-rendering:auto;fill-opacity:1;stroke:none;display:inline;color:#000;fill-rule:nonzero;color-rendering:auto;color-interpolation:sRGB"/>
 <rect width="3" height="2.061" x="24" y="3.939" rx="0.7" style="fill:#515151;opacity:1;fill-opacity:1;stroke:none;fill-rule:nonzero"/>
</svg>
